X:1
T: Echoes from Forest Garden
C:
R:Reel
Q: 232
K:A
M:4/4
L:1/8
|:AB|cA GA FA EA|cA GA a2 gf|eA GA FA EA|z2 z2 Be ^d=d|
cA GA FA EA|cA GA a2 gf|eA GA FA EA|ce dB A2:|
|:cd|e^d fe ae cA|Bc BA GE FG|AG BA cB dc|e^d fe Bc =d^d|
e^d fe ae cA|Bc BA GE FG|Aa gf ed ce|((3gfe) ((3dcB) A2:|
